svg/600/rounded/instant_mix-fill.svg

<svg xmlns="http://www.w3.org/2000/svg" width="48" height="48" viewBox="0 -960 960 960"><path d="M205.823-133.999q-17.912 0-30.368-12.581-12.457-12.582-12.457-30.985v-250.434h-38.999q-18.403 0-30.702-12.632-12.299-12.632-12.299-31.109 0-17.912 12.3-30.086Q105.595-514 123.998-514h164q18.402 0 30.701 12.632t12.299 30.544q0 18.477-12.299 30.651t-30.701 12.174h-39v251q0 18.402-12.349 30.701-12.35 12.299-30.827 12.299Zm0-440.001q-17.912 0-30.368-12.582-12.457-12.581-12.457-30.419v-166q0-18.402 12.632-30.701t30.544-12.299q18.477 0 30.651 12.299t12.174 30.701v166q0 18.403-12.349 30.702Q224.3-574 205.823-574Zm191.612-41q-17.837 0-30.137-12.632-12.299-12.632-12.299-30.544 0-18.477 12.582-30.651T398-701.001h38.999v-82q0-17.837 12.633-30.419 12.632-12.581 30.543-12.581 17.912 0 30.369 12.581 12.457 12.582 12.457 30.419v82h39.564q17.837 0 30.137 12.632 12.299 12.632 12.299 30.544 0 18.477-12.299 30.651Q580.402-615 562.565-615h-165.13Zm82.39 481.001q-17.912 0-30.369-12.581-12.457-12.582-12.457-30.985v-334.434q0-17.838 12.633-30.419Q462.264-555 480.175-555q17.912 0 30.369 12.582 12.457 12.581 12.457 30.419v334.434q0 18.403-12.633 30.985-12.632 12.581-30.543 12.581Zm274.566 0q-18.477 0-30.934-12.581-12.456-12.582-12.456-30.985v-83.434h-39q-18.402 0-30.701-12.632t-12.299-31.109q0-17.912 12.299-30.086T672.001-347h164.566q17.837 0 30.136 12.632t12.299 30.544q0 18.477-12.299 30.651t-30.136 12.174h-39.565v84q0 18.402-12.35 30.701-12.349 12.299-30.261 12.299Zm0-273.001q-18.477 0-30.934-12.299-12.456-12.299-12.456-30.702v-333q0-18.402 12.632-30.701t31.109-12.299q17.912 0 30.086 12.299t12.174 30.701v333q0 18.403-12.35 30.702Q772.303-407 754.391-407Z"/></svg>

<svg xmlns="http://www.w3.org/2000/svg" width="48" height="48" viewBox="0 -960 960 960"><path d="M205.82-134q-17.91 0-30.37-12.58Q163-159.16 163-177.56V-428h-39q-18.4 0-30.7-12.63T81-471.74q0-17.91 12.3-30.09Q105.6-514 124-514h164q18.4 0 30.7 12.63t12.3 30.55q0 18.47-12.3 30.65Q306.4-428 288-428h-39v251q0 18.4-12.35 30.7T205.82-134Zm0-440q-17.91 0-30.37-12.58Q163-599.16 163-617v-166q0-18.4 12.63-30.7t30.54-12.3q18.48 0 30.66 12.3Q249-801.4 249-783v166q0 18.4-12.35 30.7T205.82-574Zm191.61-41q-17.83 0-30.13-12.63T355-658.18q0-18.47 12.58-30.65Q380.16-701 398-701h39v-82q0-17.84 12.63-30.42Q462.26-826 480.18-826q17.91 0 30.36 12.58Q523-800.84 523-783v82h39.57q17.83 0 30.13 12.63t12.3 30.54q0 18.48-12.3 30.66Q580.4-615 562.57-615H397.43Zm82.39 481q-17.91 0-30.36-12.58Q437-159.16 437-177.56V-512q0-17.84 12.63-30.42Q462.26-555 480.18-555q17.91 0 30.36 12.58Q523-529.84 523-512v334.44q0 18.4-12.63 30.98Q497.74-134 479.82-134Zm274.57 0q-18.48 0-30.93-12.58Q711-159.16 711-177.56V-261h-39q-18.4 0-30.7-12.63T629-304.74q0-17.91 12.3-30.09Q653.6-347 672-347h164.57q17.83 0 30.13 12.63t12.3 30.55q0 18.47-12.3 30.65Q854.4-261 836.57-261H797v84q0 18.4-12.35 30.7T754.39-134Zm0-273q-18.48 0-30.93-12.3Q711-431.6 711-450v-333q0-18.4 12.63-30.7 12.64-12.3 31.11-12.3 17.91 0 30.09 12.3Q797-801.4 797-783v333q0 18.4-12.35 30.7T754.39-407Z"/></svg>
